X:195
T:Waltz. CJF.195
R:Waltz jig
S:C.J.Fox MS, 1829/33, Beverley,E.Yorks.
B:Kidson Coll.Mitchell Lib.M1805
O:England
A:East Yorkshire
Z:vmp.P J Headford 2000 & 2008
M:3/8
L:1/8
Q:3/8=45
K:G
“p”(B/c/)|d2d|d(gf)|{f}e2e|.e(c’b)|\
{b}a2a|.a(d’f)|(ag).g|g2:|!
|:B|(e^d).d|(fe).e|(gf).f|(ag).g|\
.e.f.g|d2B|(dc).A|G2h:|!
|:d|.g.f.g|.b.a.^g|.a.b.c’|\
(e’d’).b|.g.a.b|.a.b.c’|.d'(df)|g2:|!
|:” f”d|(a^ga)|(^ab).g|(ac’).f|.g.b.d’|\
.a.b.c’|”p”(^c’d’).b|” D Capo”(d’c’).a|g2:|

